icons/desktop/16/translations-companion-16.svg

<svg width="16" height="16" viewBox="0 0 16 16" fill="none" xmlns="http://www.w3.org/2000/svg">
<g clip-path="url(#clip0_22604_1037)">
<path d="M1.5 9.78223C1.50012 12.046 3.17382 13.9571 5.39453 14.2393L5.42773 14.2441H5.44141L5.48145 14.25C5.8613 14.298 6.23745 14.3294 6.6123 14.3594L6.82129 14.376L7.04395 14.3984C7.18388 14.4134 7.32391 14.4265 7.46484 14.4355C8.14784 14.4785 8.832 14.501 9.5 14.501C9.689 14.501 10.0562 14.4934 10.4102 14.4834C10.4761 14.4814 10.5424 14.4748 10.6084 14.4658L10.6094 14.4668C11.3172 14.4428 11.9546 14.3987 12.5645 14.3447C12.1035 15.0987 11.3148 15.6388 10.3838 15.7568C9.42699 15.8778 8.45521 15.9387 7.48242 15.9697C7.44445 15.9727 7.40806 15.9844 7.37109 15.9844C7.03209 15.9934 6.68198 16.001 6.50098 16.001C5.85498 16.001 5.20556 15.9805 4.55957 15.9395C4.35381 15.9264 4.15008 15.8988 3.94531 15.8818C3.52131 15.8468 3.09578 15.8157 2.67578 15.7637C2.66895 15.7626 2.66208 15.7589 2.6543 15.7588C2.6313 15.7558 2.60796 15.755 2.58496 15.752C1.11098 15.5649 0 14.2939 0 12.7959V6.20508C0 5.10611 0.600044 4.13418 1.5 3.61816V9.78223Z" fill="black"/>
<path d="M12.3545 7.81836H10.9062L11.6309 6.12012L12.3545 7.81836Z" fill="black"/>
<path fill-rule="evenodd" clip-rule="evenodd" d="M10.3701 0.0175781C10.4081 0.0185961 10.4445 0.0292297 10.4814 0.0322266C11.4532 0.0632296 12.426 0.124149 13.3828 0.245117C14.8738 0.433117 16 1.70608 16 3.20508L15.999 3.20801L15.9922 6.50293L15.999 9.79785C15.999 11.2969 14.8738 12.5698 13.3818 12.7578C12.425 12.8788 11.4533 12.9397 10.4805 12.9707C10.4425 12.9737 10.4061 12.9853 10.3691 12.9854C10.0302 12.9944 9.68003 13.002 9.49902 13.002C8.85302 13.002 8.20362 12.9814 7.55762 12.9404C7.35185 12.9274 7.14813 12.8998 6.94336 12.8828C6.51936 12.8478 6.09383 12.8166 5.67383 12.7646C5.66603 12.7636 5.66012 12.7608 5.65234 12.7598C5.62935 12.7568 5.606 12.7559 5.58301 12.7529C4.10901 12.5659 2.99805 11.2949 2.99805 9.79688V3.20605C2.99805 1.70805 4.10901 0.437 5.58301 0.25C5.606 0.247002 5.62935 0.246163 5.65234 0.243164C5.66014 0.242134 5.667 0.239294 5.6748 0.238281C6.0978 0.185281 6.5271 0.154141 6.9541 0.119141C7.15595 0.103149 7.35575 0.0755067 7.55859 0.0625C8.20459 0.0215 8.854 0.000976562 9.5 0.000976562C9.682 0.000976982 10.0321 0.00857836 10.3701 0.0175781ZM8.00586 2.00195C7.72405 2.00207 7.49429 2.22994 7.49414 2.51074V2.76758C6.79121 2.79558 6.0892 2.86673 5.40527 3.01172C5.1276 3.06994 4.94889 3.34428 5.00879 3.62207C5.06684 3.89793 5.34118 4.07844 5.62207 4.01758C6.7058 3.78869 7.83076 3.73137 8.93848 3.82031L8.89844 3.93262C8.68848 4.5245 8.35362 5.09861 7.92773 5.60254C7.73586 5.33964 7.57362 5.05369 7.42969 4.75684H6.31055C6.53152 5.31577 6.8185 5.84713 7.19043 6.33008C6.83055 6.61994 6.43753 6.86177 6.0127 7.05371L5.99121 7.06641C5.81674 7.15345 5.70816 7.32602 5.70801 7.5166C5.70801 7.79553 5.93592 8.02137 6.21582 8.02148C6.28471 8.02146 6.35404 8.00645 6.41895 7.97852C6.94076 7.74556 7.43019 7.44388 7.87305 7.08301C8.41893 7.59984 9.03994 8.00769 9.71875 8.30664L9.29785 9.29492C9.27087 9.35889 9.25684 9.42522 9.25684 9.49219C9.25696 9.77297 9.48678 10.0008 9.76855 10.001C9.97755 10.001 10.1632 9.87653 10.2422 9.68555L10.6582 8.71289H12.5996L13.0273 9.69727C13.1093 9.87999 13.2915 9.99682 13.4902 9.99707C13.7702 9.99707 13.9989 9.77108 13.999 9.49219C13.999 9.45321 13.9933 9.41391 13.9854 9.37793L13.9863 9.37695L12.3154 5.43652C12.2353 5.24788 12.0495 5.12699 11.8438 5.12695H11.416C11.2102 5.12704 11.0234 5.24774 10.9434 5.43652L10.1201 7.36914C9.57119 7.12615 9.06227 6.79397 8.61133 6.37402C9.16419 5.75018 9.59622 5.02621 9.86523 4.27441L9.97949 3.95508C10.1104 3.97807 10.2451 3.98864 10.375 4.0166C10.4108 4.02453 10.4467 4.02926 10.4814 4.0293C10.7234 4.0293 10.9363 3.85798 10.9863 3.62207C11.0463 3.34412 10.8678 3.06978 10.5898 3.01172C9.91091 2.86775 9.2155 2.79755 8.51758 2.76855V2.51074C8.51743 2.22993 8.28768 2.00206 8.00586 2.00195Z" fill="black"/>
</g>
<defs>
<clipPath id="clip0_22604_1037">
<rect width="16" height="16" fill="white"/>
</clipPath>
</defs>
</svg>

<!-- This Source Code Form is subject to the terms of the Mozilla Public
   - License, v. 2.0. If a copy of the MPL was not distributed with this
   - file, You can obtain one at http://mozilla.org/MPL/2.0/. -->
<svg xmlns="http://www.w3.org/2000/svg" width="16" height="16" fill="context-fill" fill-opacity="context-fill-opacity" viewBox="0 0 16 16">
    <path d="M1.5 9.782c0 2.264 1.674 4.175 3.895 4.457l.033.005h.013l.04.006c.38.048.756.08 1.131.11l.21.016.222.022q.21.024.42.037a33 33 0 0 0 2.036.066c.189 0 .556-.008.91-.018q.099-.003.198-.017h.001a36 36 0 0 0 1.956-.121 3 3 0 0 1-2.181 1.412 31 31 0 0 1-2.902.213c-.038.003-.074.014-.11.014a36 36 0 0 1-.871.017q-.97 0-1.941-.062c-.206-.013-.41-.04-.615-.057-.424-.035-.85-.066-1.27-.118l-.02-.005-.07-.007A2.976 2.976 0 0 1 0 12.796v-6.59c0-1.1.6-2.072 1.5-2.588zm10.855-1.964h-1.449l.725-1.698z" />
    <path fill-rule="evenodd" d="M10.37.018c.038 0 .075.011.111.014a31 31 0 0 1 2.902.213A2.99 2.99 0 0 1 16 3.205l-.001.003-.007 3.295L16 9.798a2.99 2.99 0 0 1-2.617 2.96 31 31 0 0 1-2.902.213c-.037.003-.074.014-.11.014a36 36 0 0 1-.871.017q-.97 0-1.941-.062c-.206-.013-.41-.04-.615-.057-.424-.035-.85-.066-1.27-.118l-.02-.005-.07-.007a2.976 2.976 0 0 1-2.585-2.956V3.206A2.974 2.974 0 0 1 5.583.25l.07-.007.022-.005c.423-.053.852-.084 1.28-.119.2-.016.4-.043.604-.056A31 31 0 0 1 9.5 0c.182 0 .532.008.87.017M8.006 2.002a.51.51 0 0 0-.512.509v.257c-.703.028-1.405.099-2.089.244a.514.514 0 1 0 .217 1.006 11.6 11.6 0 0 1 3.316-.198l-.04.113a5.4 5.4 0 0 1-.97 1.67 5.5 5.5 0 0 1-.498-.846H6.31a6.5 6.5 0 0 0 .88 1.573q-.54.436-1.177.724l-.022.012a.503.503 0 0 0 .428.913 6.5 6.5 0 0 0 1.454-.896 6.5 6.5 0 0 0 1.846 1.224l-.421.988a.506.506 0 0 0 .47.706.51.51 0 0 0 .474-.315l.416-.973H12.6l.427.984a.509.509 0 0 0 .958-.32h.001l-1.67-3.94a.51.51 0 0 0-.472-.31h-.428a.51.51 0 0 0-.473.31l-.823 1.932a5.4 5.4 0 0 1-1.509-.995 6.5 6.5 0 0 0 1.254-2.1l.114-.319c.131.023.266.034.396.062a.52.52 0 0 0 .611-.395.514.514 0 0 0-.396-.61 12.5 12.5 0 0 0-2.072-.243V2.51A.513.513 0 0 0 8.006 2" clip-rule="evenodd" />
</svg>
